public/images/icons/icon-flow-chart.svg

<svg data-name="Layer 1" xmlns="http://www.w3.org/2000/svg" viewBox="0 0 60 60"><title>icon-flow-chart</title><path d="M30 0a30 30 0 1 0 30 30A30 30 0 0 0 30 0zm-5.63 15.22h11.26v8H24.37v-8zm.14 29.56H13.26v-8h11.25v8zm-3.82-13.39v3.7H18.1v-6.27h10.62v-4.13h2.56v4.13H41.9v6.27h-2.56v-3.7H20.69zm26 13.39h-11.2v-8h11.25v8z"/></svg>

<svg id="Layer_1" data-name="Layer 1" xmlns="http://www.w3.org/2000/svg" viewBox="0 0 60 60"><title>icon-flow-chart</title><path d="M30,0A30,30,0,1,0,60,30,30,30,0,0,0,30,0ZM24.37,15.22H35.63v8H24.37v-8Zm0.14,29.56H13.26v-8H24.51v8ZM20.69,31.39v3.7H18.1V28.82H28.72V24.69h2.56v4.13H41.9v6.27H39.34v-3.7H20.69Zm26,13.39H35.49v-8H46.74v8Z"/></svg>
